docs/images/icons/telegram-black.svg

<svg width="37" height="38" viewBox="0 0 37 38" fill="none" xmlns="http://www.w3.org/2000/svg">
<g clip-path="url(#clip0_339_345)">
<path d="M31.5815 5.49765C28.0873 2.00339 23.4415 0.0791016 18.5 0.0791016C13.5585 0.0791016 8.91274 2.00339 5.41855 5.49765C1.92429 8.99184 0 13.6377 0 18.5791C0 23.5206 1.92429 28.1664 5.41855 31.6606C8.91274 35.1548 13.5585 37.0791 18.5 37.0791C23.4415 37.0791 28.0873 35.1548 31.5815 31.6606C35.0756 28.1663 37 23.5206 37 18.5791C37 13.6377 35.0757 8.99184 31.5815 5.49765ZM18.5 35.9107C8.9433 35.9107 1.16839 28.1358 1.16839 18.5791C1.16839 9.02241 8.9433 1.24749 18.5 1.24749C28.0567 1.24749 35.8316 9.02241 35.8316 18.5791C35.8316 28.1358 28.0567 35.9107 18.5 35.9107Z" fill="black"/>
<path d="M28.9779 7.20712C28.7985 7.07198 28.5575 7.05175 28.358 7.15494L5.76852 18.8391C5.57326 18.9401 5.4512 19.1422 5.45265 19.3621C5.45409 19.5819 5.5789 19.7823 5.7756 19.8806L11.6843 22.8349V28.6888C11.6843 28.842 11.7364 28.9936 11.8419 29.1048C11.9585 29.2279 12.1135 29.2896 12.2686 29.2896C12.3663 29.2896 12.464 29.2652 12.5524 29.216L19.3124 25.4605L24.4864 27.6779C24.5965 27.7251 24.7183 27.7446 24.8361 27.7226C25.0786 27.6773 25.2588 27.4916 25.3047 27.2621L26.6138 20.7165C26.6861 20.355 26.4096 20.0177 26.0409 20.0177C25.7624 20.0176 25.5227 20.2141 25.4681 20.4872L24.3001 26.3268L19.5093 24.2736C19.3433 24.2024 19.1535 24.2122 18.9954 24.2998L12.8528 27.7124V22.4737C12.8528 22.2525 12.7278 22.0503 12.5298 21.9512L7.32563 19.3491L27.8151 8.75108L26.037 17.6414C25.9647 18.003 26.2412 18.3402 26.6099 18.3402C26.8884 18.3402 27.1281 18.1436 27.1829 17.8706L29.1993 7.78828C29.2433 7.56816 29.1572 7.34219 28.9779 7.20712Z" fill="black"/>
<path d="M25.1899 11.9854C25.0063 11.753 24.6776 11.6946 24.4253 11.8501L14.299 18.0817C14.1262 18.188 14.021 18.3764 14.021 18.5792V24.8108C14.0209 25.0818 14.2072 25.3171 14.4708 25.3794C14.5157 25.39 14.5607 25.3952 14.6053 25.3952C14.8226 25.3952 15.0271 25.2733 15.1276 25.0721L17.422 20.4833L25.1446 12.7608C25.3541 12.5512 25.3736 12.218 25.1899 11.9854ZM16.5288 19.724C16.4845 19.7684 16.4475 19.8197 16.4195 19.8758L15.1894 22.336V18.9057L20.7998 15.453L16.5288 19.724Z" fill="black"/>
</g>
<defs>
<clipPath id="clip0_339_345">
<rect width="37" height="37" fill="white" transform="translate(0 0.0791016)"/>
</clipPath>
</defs>
</svg>

<svg width="37" height="38" fill="none" xmlns="http://www.w3.org/2000/svg"><g clip-path="url(#a)" fill="#000"><path d="M31.581 5.498A18.379 18.379 0 0 0 18.5.079 18.379 18.379 0 0 0 5.419 5.498 18.379 18.379 0 0 0 0 18.579c0 4.942 1.924 9.587 5.419 13.082A18.379 18.379 0 0 0 18.5 37.079c4.942 0 9.587-1.924 13.081-5.418A18.38 18.38 0 0 0 37 18.579c0-4.941-1.924-9.587-5.419-13.081ZM18.5 35.91c-9.557 0-17.332-7.775-17.332-17.332S8.943 1.247 18.5 1.247 35.832 9.022 35.832 18.58 28.057 35.911 18.5 35.911Z"/><path d="M28.978 7.207a.584.584 0 0 0-.62-.052L5.768 18.839a.584.584 0 0 0 .008 1.042l5.908 2.954v5.854a.586.586 0 0 0 .868.527l6.76-3.756 5.174 2.218a.585.585 0 0 0 .818-.416l1.31-6.546a.584.584 0 0 0-1.146-.229l-1.168 5.84-4.79-2.053a.585.585 0 0 0-.515.026l-6.142 3.412v-5.238a.584.584 0 0 0-.323-.523L7.326 19.35l20.49-10.598-1.779 8.89a.584.584 0 1 0 1.146.23l2.016-10.083a.584.584 0 0 0-.221-.58Z"/><path d="M25.19 11.985a.584.584 0 0 0-.765-.135L14.3 18.082a.584.584 0 0 0-.278.497v6.232a.584.584 0 0 0 1.107.261l2.294-4.589 7.723-7.722a.584.584 0 0 0 .045-.776Zm-8.661 7.739a.585.585 0 0 0-.11.152l-1.23 2.46v-3.43l5.61-3.453-4.27 4.271Z"/></g><defs><clipPath id="a"><path fill="#fff" transform="translate(0 .08)" d="M0 0h37v37H0z"/></clipPath></defs></svg>
